front/assets/images/icone-lien-externe.svg

<svg width="16" height="17" viewBox="0 0 16 17" fill="none" xmlns="http://www.w3.org/2000/svg">
    <path fill-rule="evenodd" clip-rule="evenodd" d="M6.66667 4.05664V5.38997H3.33333V12.7233H10.6667V9.38997H12V13.39C12 13.7582 11.7015 14.0566 11.3333 14.0566H2.66667C2.29848 14.0566 2 13.7582 2 13.39V4.72331C2 4.35512 2.29848 4.05664 2.66667 4.05664H6.66667ZM14 2.05664V8.05664L11.4707 5.52797L7.47133 9.52797L6.52867 8.58531L10.528 4.58531L8 2.05664H14Z" fill="#0D0C21"/>
</svg>

<svg xmlns="http://www.w3.org/2000/svg" width="16" height="17" fill="none"><path fill="#0D0C21" fill-rule="evenodd" d="M6.667 4.057V5.39H3.333v7.333h7.334V9.39H12v4a.667.667 0 0 1-.667.667H2.667A.667.667 0 0 1 2 13.39V4.723c0-.368.298-.666.667-.666zm7.333-2v6l-2.53-2.529-3.999 4-.942-.943 3.999-4L8 2.057z" clip-rule="evenodd"/></svg>
